img/video.svg

<?xml version="1.0" encoding="UTF-8" standalone="no"?>
<svg width="24px" height="24px" viewBox="0 0 24 24" version="1.1" xmlns="http://www.w3.org/2000/svg" xmlns:xlink="http://www.w3.org/1999/xlink" xmlns:sketch="http://www.bohemiancoding.com/sketch/ns">
    <!-- Generator: Sketch 3.1.1 (8761) - http://www.bohemiancoding.com/sketch -->
    <title>video</title>
    <desc>Created with Sketch.</desc>
    <defs></defs>
    <g id="Page-1" stroke="none" stroke-width="1" fill="none" fill-rule="evenodd" sketch:type="MSPage">
        <g id="video" sketch:type="MSArtboardGroup" fill="#9B9B9B">
            <path d="M22.5,4.77272727 L21.83475,4.77272727 C21.441,4.77272727 21.063,4.93268182 20.78175,5.21781818 L18.75,7.28254545 L18.75,6.31818182 C18.75,5.03777273 17.742,4 16.5,4 L2.25,4 C1.0095,4 0,5.03931818 0,6.31818182 L0,11.7056364 L0,18.6818182 C0,19.9614545 1.00725,21 2.25,21 L16.5,21 C17.742,21 18.75,19.9614545 18.75,18.6818182 L18.75,17.7383182 L20.78175,19.8030455 C21.063,20.0881818 21.441,20.2481364 21.83475,20.2481364 L22.5,20.2481364 C23.328,20.2481364 24,19.5565455 24,18.7026818 L24,6.31818182 C24,5.46431818 23.328,4.77272727 22.5,4.77272727 L22.5,4.77272727 Z" sketch:type="MSShapeGroup"></path>
        </g>
    </g>
</svg>

<svg viewBox="0 0 24 24" xmlns="http://www.w3.org/2000/svg"><g fill="none" fill-rule="evenodd"><path d="m22.5 4.773h-.665c-.394 0-.772.16-1.053.445l-2.032 2.065v-.964c0-1.28-1.01-2.318-2.25-2.318h-14.25c-1.241 0-2.25 1.039-2.25 2.318v5.387 6.976c0 1.28 1.01 2.318 2.25 2.318h14.25c1.242 0 2.25-1.039 2.25-2.318v-.944l2.032 2.065c.281.285.659.445 1.053.445h.665c.828 0 1.5-.692 1.5-1.545v-12.384c0-.854-.672-1.545-1.5-1.545" fill="#9b9b9b"/></g></svg>
